icons/lines/wallet-check.svg

<svg xmlns="http://www.w3.org/2000/svg" width="24" height="24" viewBox="0 0 24 24" fill="none" stroke="currentColor" stroke-width="2" stroke-linecap="round" stroke-linejoin="round" >
  <path d="M9 19C9 19.75 8.79 20.46 8.42 21.06C7.73 22.22 6.46 23 5 23C3.54 23 2.27 22.22 1.58 21.06C1.21 20.46 1 19.75 1 19C1 16.79 2.79 15 5 15C7.21 15 9 16.79 9 19Z" stroke-miterlimit="10"/>
  <path d="M3.44141 18.9995L4.43141 19.9895L6.56141 18.0195"/>
  <path d="M17.7514 7.04997C17.5114 7.00997 17.2614 6.99998 17.0014 6.99998H7.00141C6.72141 6.99998 6.45141 7.01998 6.19141 7.05998C6.33141 6.77998 6.53141 6.52001 6.77141 6.28001L10.0214 3.02C11.3914 1.66 13.6114 1.66 14.9814 3.02L16.7314 4.78996C17.3714 5.41996 17.7114 6.21997 17.7514 7.04997Z"/>
  <path d="M22 12V17C22 20 20 22 17 22H7.63C7.94 21.74 8.21 21.42 8.42 21.06C8.79 20.46 9 19.75 9 19C9 16.79 7.21 15 5 15C3.8 15 2.73 15.53 2 16.36V12C2 9.28 3.64 7.38 6.19 7.06C6.45 7.02 6.72 7 7 7H17C17.26 7 17.51 7.00999 17.75 7.04999C20.33 7.34999 22 9.26 22 12Z"/>
  <path d="M22 12.5H19C17.9 12.5 17 13.4 17 14.5C17 15.6 17.9 16.5 19 16.5H22"/>
  </svg>

<svg xmlns="http://www.w3.org/2000/svg" width="24" height="24" viewBox="0 0 24 24" fill="none" stroke="currentColor" stroke-width="2" stroke-linecap="round" stroke-linejoin="round">
  <path d="M17.001 7a4.6 4.6 0 0 1 .749.05C20.33 7.35 22 9.26 22 12v5c0 3-2 5-5 5H7.63a3.6 3.6 0 0 0 .79-.94A4 4 0 0 0 5 15a4 4 0 0 0-3 1.36V12c0-2.72 1.64-4.62 4.19-4.94A5 5 0 0 1 7 7z" />
  <path d="M22 12.5h-3a2 2 0 0 0 0 4h3" />
  <path d="m3.441 19 .99.99 2.13-1.97" />
  <path d="M7.001 7a5 5 0 0 0-.81.06 3 3 0 0 1 .58-.78l3.25-3.26a3.525 3.525 0 0 1 4.96 0l1.75 1.77a3.37 3.37 0 0 1 1.02 2.26 4.6 4.6 0 0 0-.75-.05" />
  <circle cx="5" cy="18.995" r="4" />
</svg>
